public/img/icon-1.svg

<svg height="119" viewBox="0 0 119 119" width="119" xmlns="http://www.w3.org/2000/svg" xmlns:xlink="http://www.w3.org/1999/xlink"><filter id="a" height="112.6%" width="112.6%" x="-6.3%" y="-4.5%"><feOffset dx="0" dy="2" in="SourceAlpha" result="shadowOffsetOuter1"/><feGaussianBlur in="shadowOffsetOuter1" result="shadowBlurOuter1" stdDeviation="2"/><feColorMatrix in="shadowBlurOuter1" result="shadowMatrixOuter1" type="matrix" values="0 0 0 0 0   0 0 0 0 0   0 0 0 0 0  0 0 0 0.204455389 0"/><feMerge><feMergeNode in="shadowMatrixOuter1"/><feMergeNode in="SourceGraphic"/></feMerge></filter><g fill="none" fill-rule="evenodd" filter="url(#a)" transform="translate(4 2)"><circle cx="55.5" cy="55.5" fill="#fff" r="55.5"/><g fill="#6ac259" fill-rule="nonzero" transform="translate(29 32)"><path d="m14.3035527 2.93465108c-.0021497.00571513-.0054374.00850623-.0064491.01355681l-.2908412.52791805c-.0064491.0107657-.0113807.02272759-.0156801.03402493l-4.9905823 9.07960563 10.5639851 6.4102435 4.8481965-8.8254819.606973-1.10461402 1.4615403-2.65899507 3.5193051-6.41090901-10.5629734.00000092c-2.1514663-.00119619-4.0452219 1.16814494-5.1334739 2.93465016z"/><path d="m38.9539604 3.20512193c-.5053218-.94299565-1.2435644-1.76198638-2.1845297-2.34599242-.9414604-.58413895-1.9696782-.85912951-2.9856436-.85912951h-10.3371287-3.4466584c2.1016089 0 3.9492574 1.16189823 5.0175743 2.92042895l.3226485.60447417 8.3231435 15.47509688 10.3366337-6.4097122z"/><path d="m29 19h12.6664904l6.3335096-11z"/><path d="m53.308996 28.1188325c-.0022095-.0037659-.0033792-.0069043-.008838-.0112979l-.2977631-.4997463c-.004419-.011298-.0139069-.0214662-.0183259-.0300024l-5.1261783-8.5777859-10.8578907 6.0544499 4.9842502 8.335633.6238599 1.0444334 1.4989532 2.5120381 3.6205966 6.0534456 5.4295302-9.0811727c1.1061815-1.8499778 1.0885055-4.0298559.1518059-5.7999948z"/><path d="m40.4767385 49c1.0525563 0 2.1210448-.2568727 3.097409-.8040801.9785485-.5467098 1.74214-1.3130987 2.2690606-2.1956711l5.3663412-8.999378 1.7904507-3.0008708c-1.0920015 1.8284613-3.0217309 2.8941411-5.0484671 2.9992536h-.6764782l-17.2750547.0016172v11.9986316h10.4767385z"/><path d="m33 32-6 10.4993671 6 10.5006329z"/><path d="m24 36.000539h-9.7563743-1.2212483l-2.9386286-.000539-7.0837488.000539 5.31217553 9.7494895c1.08334898 1.9854481 3.00312577 3.1406277 5.01525957 3.2492458.0054702-.000539.0086505 0 .0146295 0h.5840366c.0114492.0017519.0244249 0 .0368918-.0017519l10.0359893.0017519v-12.9987353z"/><path d="m.83863148 27.8563381c-.52962093.8891825-.83863148 1.9218179-.83863148 3.0239227 0 1.1016032.30901055 2.1331101.83863148 3.0234212l5.43075958 9.0707651 1.8115532 3.0255529c-1.10266195-1.8431947-1.08992192-4.0126696-.16146028-5.7798744l.3411206-.5703007 8.73939542-14.6013524-10.86034917-6.0484725z"/><path d="m20 30-6.3324076-10.9982764-12.6675924-.0017236z"/></g></g></svg>

<?xml version="1.0" encoding="UTF-8"?>
<svg width="119px" height="119px" viewBox="0 0 119 119" version="1.1" xmlns="http://www.w3.org/2000/svg" xmlns:xlink="http://www.w3.org/1999/xlink">
    <!-- Generator: Sketch 49.3 (51167) - http://www.bohemiancoding.com/sketch -->
    <title>Group 2</title>
    <desc>Created with Sketch.</desc>
    <defs>
        <filter x="-6.3%" y="-4.5%" width="112.6%" height="112.6%" filterUnits="objectBoundingBox" id="filter-1">
            <feOffset dx="0" dy="2" in="SourceAlpha" result="shadowOffsetOuter1"></feOffset>
            <feGaussianBlur stdDeviation="2" in="shadowOffsetOuter1" result="shadowBlurOuter1"></feGaussianBlur>
            <feColorMatrix values="0 0 0 0 0   0 0 0 0 0   0 0 0 0 0  0 0 0 0.204455389 0" type="matrix" in="shadowBlurOuter1" result="shadowMatrixOuter1"></feColorMatrix>
            <feMerge>
                <feMergeNode in="shadowMatrixOuter1"></feMergeNode>
                <feMergeNode in="SourceGraphic"></feMergeNode>
            </feMerge>
        </filter>
    </defs>
    <g id="Page-1" stroke="none" stroke-width="1" fill="none" fill-rule="evenodd">
        <g id="Home" transform="translate(-94.000000, -867.000000)">
            <g id="Group-2" filter="url(#filter-1)" transform="translate(98.000000, 869.000000)">
                <circle id="Oval-2" fill="#FFFFFF" cx="55.5" cy="55.5" r="55.5"></circle>
                <g id="recycle" transform="translate(29.000000, 32.000000)" fill="#6AC259" fill-rule="nonzero">
                    <path d="M14.3035527,2.93465108 C14.301403,2.94036621 14.2981153,2.94315731 14.2971036,2.94820789 L14.0062624,3.47612594 C13.9998133,3.48689164 13.9948817,3.49885353 13.9905823,3.51015087 L9,12.5897565 L19.5639851,19 L24.4121816,10.1745181 L25.0191546,9.06990408 L26.4806949,6.41090901 L30,0 L19.4370266,9.16878506e-07 C17.2855603,-0.00119527205 15.3918047,1.16814586 14.3035527,2.93465108 Z" id="Shape"></path>
                    <path d="M38.9539604,3.20512193 C38.4486386,2.26212628 37.710396,1.44313555 36.7694307,0.85912951 C35.8279703,0.274990556 34.7997525,0 33.7837871,0 L23.4466584,0 L20,0 C22.1016089,0 23.9492574,1.16189823 25.0175743,2.92042895 L25.3402228,3.52490312 L33.6633663,19 L44,12.5902878 L38.9539604,3.20512193 Z" id="Shape"></path>
                    <polygon id="Shape" points="29 19 41.6664904 19 48 8"></polygon>
                    <path d="M53.308996,28.1188325 C53.3067865,28.1150666 53.3056168,28.1119282 53.300158,28.1075346 L53.0023949,27.6077883 C52.9979759,27.5964903 52.988488,27.5863221 52.984069,27.5777859 L47.8578907,19 L37,25.0544499 L41.9842502,33.3900829 L42.6081101,34.4345163 L44.1070633,36.9465544 L47.7276599,43 L53.1571901,33.9188273 C54.2633716,32.0688495 54.2456956,29.8889714 53.308996,28.1188325 Z" id="Shape"></path>
                    <path d="M40.4767385,49 C41.5292948,49 42.5977833,48.7431273 43.5741475,48.1959199 C44.552696,47.6492101 45.3162875,46.8828212 45.8432081,46.0002488 L51.2095493,37.0008708 L53,34 C51.9079985,35.8284613 49.9782691,36.8941411 47.9515329,36.9992536 L47.2750547,36.9992536 L30,37.0008708 L30,48.9995024 L40.4767385,48.9995024 L40.4767385,49 Z" id="Shape"></path>
                    <polygon id="Shape" points="33 32 27 42.4993671 33 53"></polygon>
                    <path d="M24,36.000539 L14.2436257,36.000539 L13.0223774,36.000539 L10.0837488,36 L3,36.000539 L8.31217553,45.7500285 C9.39552451,47.7354766 11.3153013,48.8906562 13.3274351,48.9992743 C13.3329053,48.9987353 13.3360856,48.9992743 13.3420646,48.9992743 L13.9261012,48.9992743 C13.9375504,49.0010262 13.9505261,48.9992743 13.962993,48.9975224 L23.9989823,48.9992743 L23.9989823,36.000539 L24,36.000539 Z" id="Shape"></path>
                    <path d="M0.83863148,27.8563381 C0.309010545,28.7455206 0,29.778156 0,30.8802608 C0,31.981864 0.309010545,33.0133709 0.83863148,33.903682 L6.26939106,42.9744471 L8.08094426,46 C6.97828231,44.1568053 6.99102234,41.9873304 7.91948398,40.2201256 L8.26060458,39.6498249 L17,25.0484725 L6.13965083,19 L0.83863148,27.8563381 Z" id="Shape"></path>
                    <polygon id="Shape" points="20 30 13.6675924 19.0017236 1 19"></polygon>
                </g>
            </g>
        </g>
    </g>
</svg>
